actions/22x22-light/task-new.svg

<svg viewBox="0 0 22 22" xmlns="http://www.w3.org/2000/svg"><path d="m4 3c-.55402 0-1 .44599-1 1v14c0 .55402.44598 1 1 1h14c .55401 0 1-.44598 1-1v-14c0-.55401-.44599-1-1-1zm8.4707 2.95703c.15111 0 .27901.0524.38477.15821l.77148.77148c.10575.10582.15827.23365.1582.38477 0 .15118-.0525.27894-.1582.38476l-4.10352 4.10547-.77148.76953c-.10582.10575-.23365.15821-.38477.15821-.15118 0-.27901-.0524-.38476-.15821l-.77149-.76953-2.05273-2.05273c-.10582-.10575-.1582-.23366-.1582-.38477 0-.15118.0524-.2809.1582-.38672l.77148-.76953c.10582-.10582.23359-.16015.38477-.16015.15111 0 .2809.0543.38672.16015l1.66601 1.67188 3.71875-3.72461c.10575-.10582.23359-.15821.38477-.15821zm1.2832 4.67578h1.08203v2.16407h2.16407v1.08203h-2.16407v2.16406h-1.08203v-2.16406h-2.16406v-1.08203h2.16406z" fill="#4d4d4d"/></svg>

<svg xmlns="http://www.w3.org/2000/svg" viewBox="0 0 22 22">
  <defs id="defs3051">
    <style type="text/css" id="current-color-scheme">
      .ColorScheme-Text {
        color:#4d4d4d
      }
      </style>
  </defs>
 <path 
     style="fill:currentColor;fill-opacity:1;stroke:none"      
	 class="ColorScheme-Text"
        d="M 4,3 C 3.44598,3 3,3.44599 3,4 l 0,14 c 0,0.55402 0.44598,1 1,1 l 14,0 c 0.55401,0 1,-0.44598 1,-1 L 19,4 C 19,3.44599 18.55401,3 18,3 L 4,3 Z m 8.4707,2.95703 c 0.15111,0 0.27901,0.0524 0.38477,0.15821 l 0.77148,0.77148 c 0.10575,0.10582 0.15827,0.23365 0.1582,0.38477 0,0.15118 -0.0525,0.27894 -0.1582,0.38476 L 9.52343,11.76172 8.75195,12.53125 C 8.64613,12.637 8.5183,12.68946 8.36718,12.68946 c -0.15118,0 -0.27901,-0.0524 -0.38476,-0.15821 L 7.21093,11.76172 5.1582,9.70899 C 5.05238,9.60324 5,9.47533 5,9.32422 5,9.17304 5.0524,9.04332 5.1582,8.9375 L 5.92968,8.16797 C 6.0355,8.06215 6.16327,8.00782 6.31445,8.00782 c 0.15111,0 0.2809,0.0543 0.38672,0.16015 L 8.36718,9.83985 12.08593,6.11524 C 12.19168,6.00942 12.31952,5.95703 12.4707,5.95703 Z m 1.2832,4.67578 1.08203,0 0,2.16407 2.16407,0 0,1.08203 -2.16407,0 0,2.16406 -1.08203,0 0,-2.16406 -2.16406,0 0,-1.08203 2.16406,0 0,-2.16407 z"
     />
</svg>
